icon-themes/breeze_svg/cmd/32/extrusiontiltdown.svg

<svg viewBox="0 0 32 32" xmlns="http://www.w3.org/2000/svg"><path d="m4 15v1h24v-1z" fill="#1d99f3"/><path d="m17.5 4a.5.5 0 0 0 -.5.5.5.5 0 0 0 .5.5.5.5 0 0 0 .5-.5.5.5 0 0 0 -.5-.5zm-3 1a.5.5 0 0 0 -.5.5.5.5 0 0 0 .5.5.5.5 0 0 0 .5-.5.5.5 0 0 0 -.5-.5zm6 0a.5.5 0 0 0 -.5.5.5.5 0 0 0 .5.5.5.5 0 0 0 .5-.5.5.5 0 0 0 -.5-.5zm-9 2a.5.5 0 0 0 -.5.5.5.5 0 0 0 .5.5.5.5 0 0 0 .5-.5.5.5 0 0 0 -.5-.5zm12 0a.5.5 0 0 0 -.5.5.5.5 0 0 0 .5.5.5.5 0 0 0 .5-.5.5.5 0 0 0 -.5-.5zm-14 3a.5.5 0 0 0 -.5.5.5.5 0 0 0 .5.5.5.5 0 0 0 .5-.5.5.5 0 0 0 -.5-.5zm16 0a.5.5 0 0 0 -.5.5.5.5 0 0 0 .5.5.5.5 0 0 0 .5-.5.5.5 0 0 0 -.5-.5zm-17 3a.5.5 0 0 0 -.5.5.5.5 0 0 0 .5.5.5.5 0 0 0 .5-.5.5.5 0 0 0 -.5-.5zm18 0a.5.5 0 0 0 -.5.5.5.5 0 0 0 .5.5.5.5 0 0 0 .5-.5.5.5 0 0 0 -.5-.5zm-18.5 4v9.085938l-3.7929688-3.792969-.7070312.707031 4 4 1 1 1-1 4-4-.707031-.707031-3.792969 3.792969v-9.085938zm18.5 0a.5.5 0 0 0 -.5.5.5.5 0 0 0 .5.5.5.5 0 0 0 .5-.5.5.5 0 0 0 -.5-.5zm-1 3a.5.5 0 0 0 -.5.5.5.5 0 0 0 .5.5.5.5 0 0 0 .5-.5.5.5 0 0 0 -.5-.5z" fill="#4d4d4d"/></svg>

<svg xmlns="http://www.w3.org/2000/svg" viewBox="0 0 32 32">
 <path 
     style="fill:#1d99f3" 
     d="M 4 15 L 4 16 L 28 16 L 28 15 L 4 15 z "
     />
 <path 
     style="fill:#4d4d4d" 
     d="M 17.5 4 A 0.5 0.5 0 0 0 17 4.5 A 0.5 0.5 0 0 0 17.5 5 A 0.5 0.5 0 0 0 18 4.5 A 0.5 0.5 0 0 0 17.5 4 z M 14.5 5 A 0.5 0.5 0 0 0 14 5.5 A 0.5 0.5 0 0 0 14.5 6 A 0.5 0.5 0 0 0 15 5.5 A 0.5 0.5 0 0 0 14.5 5 z M 20.5 5 A 0.5 0.5 0 0 0 20 5.5 A 0.5 0.5 0 0 0 20.5 6 A 0.5 0.5 0 0 0 21 5.5 A 0.5 0.5 0 0 0 20.5 5 z M 11.5 7 A 0.5 0.5 0 0 0 11 7.5 A 0.5 0.5 0 0 0 11.5 8 A 0.5 0.5 0 0 0 12 7.5 A 0.5 0.5 0 0 0 11.5 7 z M 23.5 7 A 0.5 0.5 0 0 0 23 7.5 A 0.5 0.5 0 0 0 23.5 8 A 0.5 0.5 0 0 0 24 7.5 A 0.5 0.5 0 0 0 23.5 7 z M 9.5 10 A 0.5 0.5 0 0 0 9 10.5 A 0.5 0.5 0 0 0 9.5 11 A 0.5 0.5 0 0 0 10 10.5 A 0.5 0.5 0 0 0 9.5 10 z M 25.5 10 A 0.5 0.5 0 0 0 25 10.5 A 0.5 0.5 0 0 0 25.5 11 A 0.5 0.5 0 0 0 26 10.5 A 0.5 0.5 0 0 0 25.5 10 z M 8.5 13 A 0.5 0.5 0 0 0 8 13.5 A 0.5 0.5 0 0 0 8.5 14 A 0.5 0.5 0 0 0 9 13.5 A 0.5 0.5 0 0 0 8.5 13 z M 26.5 13 A 0.5 0.5 0 0 0 26 13.5 A 0.5 0.5 0 0 0 26.5 14 A 0.5 0.5 0 0 0 27 13.5 A 0.5 0.5 0 0 0 26.5 13 z M 8 17 L 8 26.085938 L 4.2070312 22.292969 L 3.5 23 L 7.5 27 L 8.5 28 L 9.5 27 L 13.5 23 L 12.792969 22.292969 L 9 26.085938 L 9 17 L 8 17 z M 26.5 17 A 0.5 0.5 0 0 0 26 17.5 A 0.5 0.5 0 0 0 26.5 18 A 0.5 0.5 0 0 0 27 17.5 A 0.5 0.5 0 0 0 26.5 17 z M 25.5 20 A 0.5 0.5 0 0 0 25 20.5 A 0.5 0.5 0 0 0 25.5 21 A 0.5 0.5 0 0 0 26 20.5 A 0.5 0.5 0 0 0 25.5 20 z "
     />
</svg>
